img/Join_PlatON_NetWork.svg

<?xml version="1.0" encoding="UTF-8"?>
<svg width="40px" height="40px" viewBox="0 0 40 40" version="1.1" xmlns="http://www.w3.org/2000/svg" xmlns:xlink="http://www.w3.org/1999/xlink">
    <!-- Generator: Sketch 61.2 (89653) - https://sketch.com -->
    <title>2.加入网络</title>
    <desc>Created with Sketch.</desc>
    <g id="2.加入网络" stroke="none" stroke-width="1" fill="none" fill-rule="evenodd">
        <g id="datahub-data" fill-rule="nonzero">
            <path d="M37.0926363,18.0486111 C36.403957,18.0486111 35.7959906,18.3117138 35.33163,18.7173742 L28.019261,17.643999 C27.9216904,16.7894322 27.638336,15.9665595 27.1890723,15.2330975 L33.3253407,8.75301361 C33.83163,8.95531967 34.3588836,9.05699686 34.9259696,9.05699686 C37.3976962,9.05641821 39.4012819,7.0528325 39.4018606,4.58110589 C39.4018606,2.11045597 37.3966195,0.105214917 34.9458858,0.105214868 C32.4741591,0.105793515 30.4705734,2.10937926 30.4699947,4.58110589 C30.4699947,5.39137844 30.6932652,6.16077044 31.0779612,6.80856918 L25.062238,13.1471436 C24.2420113,12.6711337 23.3162194,12.4067246 22.3683176,12.3777516 L20.8295336,5.12722745 C21.421611,4.56976641 21.7588734,3.79368402 21.7624476,2.98047696 C21.7595611,1.33714683 20.4277912,0.00584567713 18.7844602,0.00351097264 C17.9973556,0.000195419035 17.2412369,0.310027964 16.6828,0.86472878 C16.1243632,1.4194296 15.8094622,2.17345156 15.807521,2.96056078 C15.807521,4.31800314 16.7194707,5.43121069 17.9343553,5.79599057 L19.4532233,12.9658019 C18.7630786,13.3131667 18.1443716,13.7871531 17.6293239,14.3630765 L10.4406447,10.6565776 C10.4406447,10.6156971 10.461609,10.5549005 10.461609,10.5150682 C10.4587226,8.87173802 9.12695265,7.54043687 7.48362161,7.53812893 C5.8406999,7.54101377 4.50956723,8.87214644 4.50668239,10.5150682 C4.50956725,12.1579898 5.84069992,13.4891225 7.48362161,13.4920073 C7.96999479,13.4920073 8.41548742,13.370414 8.80018342,13.1670597 L16.2938941,17.0360325 C16.2053754,17.4556719 16.1576341,17.8828862 16.1513365,18.3117138 C16.1513365,19.5066824 16.5161164,20.6209381 17.1240828,21.552804 L11.0077306,28.0129717 C9.62137946,27.3621383 7.99853574,27.4651401 6.70559469,28.286028 C5.41265364,29.106916 4.62905122,30.5317663 4.6282757,32.0632862 C4.62885437,34.5350128 6.63244008,36.5385985 9.10416667,36.5391771 C11.5758933,36.5385985 13.579479,34.5350128 13.5800576,32.0632862 C13.5790999,31.3966672 13.4267721,30.7389695 13.134565,30.1398061 L19.33163,23.5978774 C20.1902404,24.0614749 21.1504066,24.3049379 22.1261792,24.3064727 C22.773978,24.3064727 23.4018606,24.2058438 23.9888627,24.0024895 L28.5664308,31.2330975 C28.3431604,31.658674 28.2016509,32.1240828 28.2016509,32.610456 C28.2045358,34.2533777 29.5356685,35.5845104 31.1785902,35.5873952 C32.8215119,35.5845103 34.1526445,34.2533777 34.1555293,32.610456 C34.1526445,30.9675343 32.8215119,29.6364016 31.1785902,29.6335168 L31.0779612,29.6335168 L26.480477,22.3620283 C26.9593515,21.8464459 27.3433163,21.2502714 27.6146488,20.601022 L34.5611897,21.6335168 C34.9330268,22.7137038 35.9502424,23.4381803 37.0926363,23.4364518 C38.5706237,23.4364518 39.7865566,22.2205189 39.7865566,20.7425314 C39.7865566,19.264544 38.5706237,18.0486111 37.0926363,18.0486111" id="路径" fill="#E40065"></path>
            <path d="M9.18487947,17.5832023 C9.57243581,17.4988047 9.91023149,17.263112 10.123203,16.9284988 C10.3361744,16.5938855 10.4066797,16.1880703 10.3190513,15.8012317 C10.2346538,15.4136753 9.99896107,15.0758796 9.66434784,14.8629081 C9.3297346,14.6499367 8.92391939,14.5794314 8.53708073,14.6670597 C6.08634699,15.2330975 3.65552938,13.7142296 3.0884434,11.3253407 C2.82510083,10.1803572 3.02920241,8.97762919 3.65552933,7.98362161 C4.2971134,6.95624883 5.32768838,6.23276629 6.5119235,5.9783805 C8.96160903,5.43121069 11.3924266,6.95007862 11.9595126,9.34001572 C12.047365,9.7244787 12.2847122,10.0581257 12.6190953,10.2672136 C12.9534785,10.4763014 13.3573636,10.5436131 13.7414832,10.4542715 C14.1259462,10.3664191 14.4595932,10.1290719 14.6686811,9.79468872 C14.8777689,9.46030557 14.9450806,9.05642047 14.855739,8.67230085 C13.9437893,4.68173482 9.91443922,2.15028828 5.8630765,3.06223796 C3.91042736,3.49555425 2.2118475,4.6910888 1.14504717,6.38299268 C0.092153668,8.04379543 -0.250697721,10.0574809 0.193265183,11.9731394 C0.982573359,15.4154874 4.10102201,17.7655922 7.52450211,17.7655922 C8.08385875,17.7851278 8.64310179,17.7236958 9.18487947,17.5832023 M32.5559487,25.1167453 C32.1691835,25.0396307 31.7676395,25.1202882 31.4406527,25.340773 C31.1136658,25.5612578 30.8883589,25.9032812 30.8148585,26.2907495 C30.7374324,26.6776707 30.8179408,27.0794876 31.0384541,27.4067135 C31.2589673,27.7339394 31.6011739,27.9594013 31.9888627,28.0328878 C34.4196803,28.4993448 35.9993448,30.8683176 35.5328878,33.3190513 C35.3217354,34.5043953 34.6336721,35.551267 33.6293239,36.2152778 C32.6594903,36.8807342 31.4630511,37.1288594 30.3085692,36.903957 C27.8777516,36.4375 26.298087,34.0685272 26.7446279,31.6177935 C26.9060535,30.8075209 26.3588836,30.0381289 25.5496593,29.8756551 C24.7383386,29.7142296 23.9689465,30.2613994 23.807521,31.0706237 C23.0370807,35.1219863 25.6901206,39.0706237 29.7205189,39.8400157 C30.1869759,39.9217767 30.6523847,39.9815252 31.1387579,39.9815252 C32.6219344,39.9815252 34.0699164,39.5296916 35.2897013,38.6859277 C36.9429119,37.5680669 38.0749003,35.8302096 38.4291142,33.8662212 C39.2393868,29.8148585 36.5863469,25.8861373 32.5559487,25.1167453" id="形状" fill="#FFB7D7"></path>
        </g>
    </g>
</svg>

<svg width="40" height="40" viewBox="0 0 40 40" xmlns="http://www.w3.org/2000/svg"><g fill="none"><path d="M37.093 18.049c-.689 0-1.297.263-1.761.668l-7.313-1.073a5.896 5.896 0 00-.83-2.41l6.136-6.481a4.25 4.25 0 001.601.304 4.477 4.477 0 00.02-8.952 4.477 4.477 0 00-4.476 4.476c0 .81.223 1.58.608 2.228l-6.016 6.338a5.715 5.715 0 00-2.694-.77l-1.538-7.25a2.962 2.962 0 00.932-2.147 2.982 2.982 0 00-5.08-2.115 2.964 2.964 0 00-.874 2.096c0 1.357.911 2.47 2.126 2.835l1.52 7.17a6.166 6.166 0 00-1.825 1.397l-7.188-3.706c0-.041.02-.102.02-.142a2.982 2.982 0 00-2.977-2.977 2.982 2.982 0 00-2.977 2.977 2.982 2.982 0 002.977 2.977c.486 0 .931-.122 1.316-.325l7.494 3.869c-.089.42-.136.847-.143 1.276 0 1.195.365 2.309.973 3.24l-6.116 6.461a4.477 4.477 0 00-6.38 4.05 4.477 4.477 0 008.952 0 4.403 4.403 0 00-.445-1.923l6.197-6.542a5.901 5.901 0 002.794.708c.648 0 1.276-.1 1.863-.304l4.577 7.231a2.968 2.968 0 00-.364 1.377 2.982 2.982 0 002.977 2.977 2.982 2.982 0 002.977-2.977 2.982 2.982 0 00-2.977-2.976h-.101l-4.598-7.272a5.97 5.97 0 001.135-1.761l6.946 1.033a2.673 2.673 0 002.532 1.802 2.707 2.707 0 002.694-2.693 2.707 2.707 0 00-2.694-2.694" fill="#E40065"/><path d="M9.185 17.583a1.487 1.487 0 001.134-1.782 1.487 1.487 0 00-1.782-1.134c-2.45.566-4.881-.953-5.449-3.342a4.413 4.413 0 01.568-3.341 4.476 4.476 0 012.856-2.006c2.45-.547 4.88.972 5.448 3.362a1.483 1.483 0 001.781 1.114 1.483 1.483 0 001.115-1.782c-.912-3.99-4.942-6.522-8.993-5.61a7.498 7.498 0 00-4.718 3.321 7.344 7.344 0 00-.952 5.59c.79 3.442 3.908 5.793 7.332 5.793a5.773 5.773 0 001.66-.183m23.37 7.534a1.478 1.478 0 00-1.74 1.174 1.478 1.478 0 001.174 1.742c2.43.466 4.01 2.835 3.544 5.286a4.396 4.396 0 01-1.904 2.896 4.387 4.387 0 01-3.32.689c-2.431-.467-4.01-2.835-3.564-5.286.161-.81-.386-1.58-1.195-1.742-.812-.162-1.581.385-1.742 1.195-.77 4.051 1.882 8 5.913 8.769a8.14 8.14 0 001.418.142 7.296 7.296 0 004.15-1.296 7.405 7.405 0 003.14-4.82c.81-4.051-1.843-7.98-5.873-8.75" fill="#FFB7D7"/></g></svg>
